X: 24181
T: Lord Galway's Lamentation
R: waltz
M: 3/4
K: Ddorian
Ac|d2d2cd/e/|d4cd|e2g2e/f/e/d/|c4cB|
A2d2de|d4cB|A2GE DC|D4||
EG|A3/2B/ AG EG|A2D2EG|A3/2B/ AG EG|A2D2EG|
c3/2d/ cA GA|c2E2GA|c3/2d/ cA GA|c4Ac|
d2d2fe|d4cA|GA cA GE|D4||

